src/img/logo/facebook.svg

<?xml version="1.0" encoding="UTF-8"?>
<svg xmlns="http://www.w3.org/2000/svg" xmlns:xlink="http://www.w3.org/1999/xlink" viewBox="0 0 24 24" width="24px" height="24px">
<g id="surface7420216">
<path style=" stroke:none;fill-rule:nonzero;fill:rgb(100%,100%,100%);fill-opacity:1;" d="M 17.523438 9 L 14 9 L 14 7 C 14 5.96875 14.085938 5.316406 15.5625 5.316406 L 17.429688 5.316406 L 17.429688 2.136719 C 16.523438 2.042969 15.609375 1.996094 14.691406 2 C 11.980469 2 10 3.65625 10 6.699219 L 10 9 L 7 9 L 7 13 L 10 13 L 10 22 L 14 22 L 14 12.996094 L 17.066406 12.996094 Z M 17.523438 9 "/>
</g>
</svg>

<?xml version="1.0"?><svg fill="#000000" xmlns="http://www.w3.org/2000/svg"  viewBox="0 0 24 24" width="48px" height="48px">    <path d="M17.525,9H14V7c0-1.032,0.084-1.682,1.563-1.682h1.868v-3.18C16.522,2.044,15.608,1.998,14.693,2 C11.98,2,10,3.657,10,6.699V9H7v4l3-0.001V22h4v-9.003l3.066-0.001L17.525,9z"/></svg>
